X:4
T: Marche du Mont Saint-Louis in G (R-124, transposed)
M: C
R: march
K: G
DEF|"G"G2 "D7"A2 "G"B2 "D7"A2|"G"G4- GD"D"EF|"G"G>FED "G#m"EDCB,| "D"B,2A,2- A,DEF|
"Am7"A2B2 "D7"c>BAG|"Am7"F4- "D7"Fddd|"Am7"d2c2 "Daug"E>F"D"ED|"G"G4- "D"Gde>d||
"G"d4- dB"D7"A>G|"G"D4- "D"DB,/C/ D/D/E/F/|"G/B"GG/E/"Bbdim"GG/E/ "G/B"GG/E/ "Bbdim"G/A/G/E/|"Am"F4- "D7"Fde>B|
"Am7"d4- "D7"dcA>F|"Am7"D4- "D"DD/D/DD|"Am7"E2c2 "D7"E>FED|"G"G4- G|]

